X: 16
T: No_24_My_Grandfather_the_Sun.krn
N: Derived from No_24_My_Grandfather_the_Sun.krn
%%abc-version 2.0
%%abcx-abcm2ps-target-version 5.9.1 (29 Sep 2008)
%%abc-creator hum2abc beta
%%abcx-conversion-date 2019/03/15 08:27:55
%%humdrum-veritas 2189615624
%%humdrum-veritas-data 2997770957
%%linebreak <none>
%%barnumbers 0
L: 1/8
M: 2/4
K: D clef=bass
[K:clef=bass][M:2/4]D3/D/ DD | 
DD D z | 
D3/B,/ A,A, | 
A,A, A, z | 
D3/D/ DD | 
DD D z | 
D3/B,/ A,A, | 
A,A, A, z | 
A,3/F,/ F,F, | 
F,F, F, z | 
E,3/E,/ E,E, | 
E,E, E, z | 
D,3/D,/ D,D, | 
D,D, D,D, | 
z F, D,D, | 
E,E, E, z | 
D,3/D,/ D,D, | 
D,D, D,D, | 
z F, D,D, | 
E,D, D, z | 
D,D, D,D, | 
D,D, D, z | 
B,A,A,2 | 
A,A, A, z | 
A,3/G,/G,2 | 
G,G, G, z | 
E,3/E,/E,2 | 
E,E, E, z | 
D,3/D,/ D,D, | 
D,D, D,D, | 
z F, D,D, | 
E,E, E, z | 
D,3/D,/ D,D, | 
D,D, D,D, | 
z F, D,D, | 
E,D, D,3/C,/ | 
D,2D,D, | 
D,D, D, z |]  



